src/assets/images/free-demat-compaign/address-proof-to-open-demat-account.svg

<svg width="66" height="81" viewBox="0 0 66 81" fill="none" xmlns="http://www.w3.org/2000/svg">
<path fill-rule="evenodd" clip-rule="evenodd" d="M65.7393 29.4498C64.3574 12.8088 50.457 0 33.7579 0H32.0857C15.3982 0 1.48618 12.8088 0.115881 29.4498C-0.61572 38.3916 2.13649 47.2638 7.81511 54.2082L26.3722 76.8994C29.7631 81.0451 36.0921 81.0451 39.483 76.8994L58.0401 54.2082C63.7187 47.2638 66.4825 38.3916 65.7393 29.4498ZM21.2046 33.9904C20.0665 32.8524 20.0665 31.0176 21.2046 29.8795C22.3426 28.7415 24.1774 28.7415 25.3155 29.8795L31.0057 35.5697L42.5023 24.0732C43.6403 22.9351 45.4751 22.9351 46.6132 24.0732C47.7512 25.2112 47.7512 27.046 46.6132 28.1841L33.0612 41.7361C31.9231 42.8741 30.0883 42.8741 28.9503 41.7361L21.2046 33.9904Z" fill="url(#paint0_linear_258_59)"/>
<defs>
<linearGradient id="paint0_linear_258_59" x1="32.9291" y1="0" x2="32.9291" y2="80.0087" gradientUnits="userSpaceOnUse">
<stop stop-color="#8EF8AA"/>
<stop offset="1" stop-color="#00EFD1"/>
</linearGradient>
</defs>
</svg>

<svg width="66" height="81" fill="none" xmlns="http://www.w3.org/2000/svg"><path fill-rule="evenodd" clip-rule="evenodd" d="M65.74 29.45C64.356 12.809 50.456 0 33.757 0h-1.672C15.398 0 1.486 12.809.116 29.45a34.634 34.634 0 0 0 7.7 24.758L26.371 76.9c3.391 4.146 9.72 4.146 13.111 0L58.04 54.21a34.58 34.58 0 0 0 7.7-24.76zm-44.535 4.54a2.902 2.902 0 0 1 0-4.11 2.902 2.902 0 0 1 4.11 0l5.69 5.69 11.497-11.497a2.902 2.902 0 0 1 4.111 0 2.902 2.902 0 0 1 0 4.111L33.061 41.736a2.902 2.902 0 0 1-4.11 0l-7.746-7.746z" fill="url(#a)"/><defs><linearGradient id="a" x1="32.929" y1="0" x2="32.929" y2="80.009" gradientUnits="userSpaceOnUse"><stop stop-color="#8EF8AA"/><stop offset="1" stop-color="#00EFD1"/></linearGradient></defs></svg>
